X:238
M:3/4
L:1/4
K:G
G2 G | F2 D | c2 c | B3 | d2 B | (d c) A | G2 B/A/ | A3 | G2 G | (F3/2 E/) D | c2 c | B3 | !sintro!d2 B | (A c) e | G2 F | G3 !eintro!|]
